svg/fluentui-system-icons/ic_fluent_megaphone_loud_24_filled.svg

<svg width="24" height="24" viewBox="0 0 24 24" fill="none" xmlns="http://www.w3.org/2000/svg">
<path d="M17.2117 2.23747C17.3427 1.84453 17.1304 1.41976 16.7375 1.28872C16.3445 1.15768 15.9198 1.37 15.7887 1.76294L15.0387 4.01192C14.9077 4.40486 15.12 4.82963 15.5129 4.96067C15.9059 5.09171 16.3306 4.87939 16.4617 4.48645L17.2117 2.23747ZM21.7803 2.21988C22.0732 2.51278 22.0732 2.98765 21.7803 3.28054L19.2803 5.78054C18.9874 6.07344 18.5126 6.07344 18.2197 5.78054C17.9268 5.48765 17.9268 5.01278 18.2197 4.71988L20.7197 2.21988C21.0126 1.92699 21.4874 1.92699 21.7803 2.21988ZM12.8706 3.74109C11.7547 2.54566 9.78611 2.84518 9.07629 4.31838L3.17848 16.559C2.83795 17.2657 2.99437 18.1116 3.56513 18.6499L5.00386 20.0067C5.53118 20.504 6.30531 20.6365 6.96799 20.3429L8.38545 19.7149C9.0275 21.0661 10.4048 22.0002 12.0003 22.0002C14.2095 22.0002 16.0003 20.2094 16.0003 18.0002C16.0003 17.46 15.8932 16.9447 15.6991 16.4746L19.119 14.9594C20.5809 14.3117 20.9679 12.4159 19.8769 11.2471L12.8706 3.74109ZM14.3266 17.0826C14.4387 17.3667 14.5003 17.6763 14.5003 18.0002C14.5003 19.3809 13.3811 20.5002 12.0003 20.5002C11.0169 20.5002 10.1662 19.9324 9.75795 19.1068L14.3266 17.0826ZM19 8.24948C19 7.83527 19.3358 7.49948 19.75 7.49948H21.75C22.1642 7.49948 22.5 7.83527 22.5 8.24948C22.5 8.66369 22.1642 8.99948 21.75 8.99948H19.75C19.3358 8.99948 19 8.66369 19 8.24948Z" fill="#212121"/>
</svg>

<svg xmlns="http://www.w3.org/2000/svg" width="24" height="24"><path d="M17.212 2.237a.75.75 0 0 0-1.423-.474l-.75 2.249a.75.75 0 0 0 1.423.474l.75-2.249Zm4.568-.017a.75.75 0 0 1 0 1.06l-2.5 2.5a.75.75 0 1 1-1.06-1.06l2.5-2.5a.75.75 0 0 1 1.06 0Zm-8.91 1.52a2.325 2.325 0 0 0-3.794.577L3.178 16.56a1.8 1.8 0 0 0 .387 2.09l1.439 1.358a1.8 1.8 0 0 0 1.964.336l1.417-.628a4 4 0 0 0 7.314-3.24l3.42-1.516a2.325 2.325 0 0 0 .758-3.712L12.87 3.741Zm1.457 13.342a2.5 2.5 0 0 1-4.569 2.024l4.569-2.024ZM19 8.249a.75.75 0 0 1 .75-.75h2a.75.75 0 0 1 0 1.5h-2a.75.75 0 0 1-.75-.75Z"/></svg>
